img/Chat.svg

<svg width="16" height="16" viewBox="0 0 16 16" fill="none" xmlns="http://www.w3.org/2000/svg">
<path fill-rule="evenodd" clip-rule="evenodd" d="M14.6153 7.04557C14.5204 7.70339 14.2954 8.32861 13.9619 8.90355C13.9869 9.0459 13.9997 9.18978 13.9997 9.33429C13.9997 9.83617 13.8543 10.3165 13.5849 10.7529C13.4504 10.9707 13.4158 11.226 13.4025 11.3946C13.3873 11.5879 13.3924 11.7994 13.4062 12.0025C13.4217 12.2304 13.4497 12.4697 13.4818 12.6954C13.2216 12.6196 12.9395 12.5434 12.6704 12.4826C12.4465 12.4321 12.2174 12.3891 12.0099 12.3676C11.8289 12.349 11.5674 12.3345 11.3335 12.4101C10.8221 12.5754 10.2594 12.6676 9.66636 12.6676C8.96109 12.6676 8.31335 12.5424 7.74559 12.325C7.60903 12.3312 7.47146 12.3343 7.33301 12.3343C6.52993 12.3343 5.75701 12.2287 5.03385 12.0335C6.08516 13.2494 7.81828 14.001 9.66636 14.001C10.3883 14.001 11.0812 13.8901 11.7198 13.6864C11.7209 13.6865 11.723 13.6864 11.726 13.6864C11.7424 13.686 11.7879 13.6851 11.8729 13.6939C12.0067 13.7077 12.1786 13.7385 12.377 13.7833C12.7719 13.8724 13.2157 14.0038 13.5615 14.1136C14.2949 14.3464 15.0056 13.7064 14.8745 12.9621C14.8181 12.6418 14.7595 12.2508 14.7365 11.9122C14.7249 11.7419 14.7236 11.6021 14.7317 11.4995C14.7351 11.457 14.7394 11.4304 14.7421 11.4162C15.1172 10.7949 15.333 10.0874 15.333 9.33429C15.333 8.48526 15.0693 7.70995 14.6153 7.04557Z" fill="#9A9CA5"/>
<path fill-rule="evenodd" clip-rule="evenodd" d="M3.73109 3.79943C2.83245 4.48662 2.33306 5.38871 2.33306 6.33398C2.33306 6.80534 2.45577 7.25932 2.68599 7.68147C2.77367 7.84226 2.79854 8.00812 2.80744 8.1204C2.81714 8.24283 2.8123 8.36867 2.80166 8.48633C2.78034 8.72191 2.72949 8.98884 2.66849 9.25174C2.59715 9.55927 2.50572 9.88724 2.41296 10.1952C2.76512 10.0672 3.15003 9.93601 3.51493 9.82956C3.80985 9.74352 4.10767 9.66886 4.37274 9.62695C4.60108 9.59084 4.93243 9.55536 5.2177 9.65405C5.85792 9.87555 6.57411 10.0007 7.33306 10.0007C8.76451 10.0007 10.0358 9.55621 10.935 8.86854C11.8337 8.18135 12.3331 7.27926 12.3331 6.33398C12.3331 5.38871 11.8337 4.48662 10.935 3.79943C10.0358 3.11176 8.76451 2.66732 7.33306 2.66732C5.90162 2.66732 4.63034 3.11176 3.73109 3.79943ZM2.92116 2.74028C4.07283 1.85959 5.6349 1.33398 7.33306 1.33398C9.03123 1.33398 10.5933 1.85959 11.745 2.74028C12.8973 3.62145 13.6664 4.88602 13.6664 6.33398C13.6664 7.78194 12.8973 9.04652 11.745 9.92769C10.5933 10.8084 9.03123 11.334 7.33306 11.334C6.43769 11.334 5.58244 11.188 4.80591 10.9224C4.80513 10.9246 4.74215 10.9184 4.58098 10.9439C4.39521 10.9733 4.15809 11.0308 3.88836 11.1095C3.35138 11.2662 2.74835 11.4878 2.28902 11.6666C1.49327 11.9763 0.682633 11.212 0.95074 10.3979C1.09284 9.96647 1.26043 9.42121 1.36966 8.95041C1.42468 8.71324 1.46039 8.51385 1.47375 8.36618C1.47839 8.31492 1.47958 8.27756 1.47932 8.2523C1.17246 7.66592 0.99973 7.01748 0.99973 6.33398C0.99973 4.88602 1.76887 3.62145 2.92116 2.74028Z" fill="#9A9CA5"/>
</svg>

<svg width="16" height="16" fill="none" xmlns="http://www.w3.org/2000/svg"><path fill-rule="evenodd" clip-rule="evenodd" d="M14.615 7.046a5.166 5.166 0 01-.653 1.858c.025.142.038.286.038.43 0 .502-.146.982-.415 1.419-.135.218-.17.473-.183.642a4.25 4.25 0 00.004.607c.016.228.044.468.076.693a13.78 13.78 0 00-.812-.212 5.819 5.819 0 00-.66-.115c-.181-.019-.443-.034-.676.042a5.425 5.425 0 01-1.668.258 5.365 5.365 0 01-1.92-.343 8.824 8.824 0 01-2.712-.291C6.085 13.248 7.818 14 9.666 14a6.76 6.76 0 002.054-.315h.006c.016 0 .062 0 .147.008.134.014.306.044.504.09.395.088.839.22 1.184.33a1.024 1.024 0 001.313-1.152c-.056-.32-.115-.711-.138-1.05a2.96 2.96 0 01-.004-.413.783.783 0 01.01-.083 4.009 4.009 0 00.591-2.082c0-.849-.264-1.624-.718-2.288z" fill="#9A9CA5"/><path fill-rule="evenodd" clip-rule="evenodd" d="M3.731 3.8c-.899.687-1.398 1.589-1.398 2.534 0 .471.123.925.353 1.347.088.161.113.327.121.44.01.122.005.248-.005.365a5.847 5.847 0 01-.134.766 14.5 14.5 0 01-.255.943c.352-.128.737-.259 1.102-.365.295-.086.593-.161.858-.203.228-.036.56-.072.845.027a6.48 6.48 0 002.115.347c1.432 0 2.703-.445 3.602-1.132.899-.688 1.398-1.59 1.398-2.535 0-.945-.5-1.847-1.398-2.535-.9-.687-2.17-1.132-3.602-1.132-1.431 0-2.703.445-3.602 1.132zm-.81-1.06c1.152-.88 2.714-1.406 4.412-1.406s3.26.526 4.412 1.406c1.152.881 1.921 2.146 1.921 3.594s-.769 2.713-1.921 3.594c-1.152.88-2.714 1.406-4.412 1.406-.895 0-1.75-.146-2.527-.412 0 .003-.064-.004-.225.022-.186.03-.423.087-.693.165a20.59 20.59 0 00-1.599.558c-.796.31-1.606-.455-1.338-1.27.142-.43.31-.976.419-1.447.055-.237.09-.436.104-.584a1.16 1.16 0 00.005-.114A4.117 4.117 0 011 6.334c0-1.448.77-2.713 1.922-3.594z" fill="#9A9CA5"/></svg>
